src/images/social/linkedin.svg

<?xml version="1.0" encoding="UTF-8"?>
<svg width="30px" height="29px" viewBox="0 0 30 29" version="1.1" xmlns="http://www.w3.org/2000/svg" xmlns:xlink="http://www.w3.org/1999/xlink">
    <!-- Generator: Sketch 51.2 (57519) - http://www.bohemiancoding.com/sketch -->
    <title>linkedin-logo</title>
    <desc>Created with Sketch.</desc>
    <defs></defs>
    <g id="Page-1" stroke="none" stroke-width="1" fill="none" fill-rule="evenodd">
        <g id="Front-Page" transform="translate(-739.000000, -6786.000000)" fill="#000000" fill-rule="nonzero">
            <g id="Footer-Section" transform="translate(195.000000, 6148.000000)">
                <g id="Social" transform="translate(544.000000, 638.000000)">
                    <g id="linkedin-logo">
                        <path d="M29.9385383,17.5783991 L29.9385383,28.6468677 L23.5217401,28.6468677 L23.5217401,18.3196984 C23.5217401,15.7254292 22.5936195,13.954942 20.2709513,13.954942 C18.4978886,13.954942 17.4427378,15.1481206 16.9785383,16.3023202 C16.8092575,16.714942 16.7656845,17.2892575 16.7656845,17.8668445 L16.7656845,28.6468677 L10.3467285,28.6468677 C10.3467285,28.6468677 10.4331787,11.1560325 10.3467285,9.34385151 L16.765058,9.34385151 L16.765058,12.0799768 C16.7520418,12.1004408 16.7351276,12.1225058 16.722877,12.1423434 L16.765058,12.1423434 L16.765058,12.0799768 C17.6177958,10.7665893 19.1406961,8.89037123 22.54942,8.89037123 C26.7725986,8.89030162 29.9385383,11.6492575 29.9385383,17.5783991 Z M3.63222738,0.0388399072 C1.4363109,0.0388399072 0,1.47918794 0,3.37329466 C0,5.22612529 1.39475638,6.71018561 3.54703016,6.71018561 L3.58990719,6.71018561 C5.82835267,6.71018561 7.22046404,5.22640371 7.22046404,3.37329466 C7.17828306,1.47918794 5.82835267,0.0388399072 3.63222738,0.0388399072 Z M0.381229698,28.6468677 L6.79774942,28.6468677 L6.79774942,9.34385151 L0.381229698,9.34385151 L0.381229698,28.6468677 Z" id="LinkedIn"></path>
                    </g>
                </g>
            </g>
        </g>
    </g>
</svg>

<svg width="30" height="29" xmlns="http://www.w3.org/2000/svg">
  <path d="M29.939 17.578v11.069h-6.417V18.32c0-2.595-.928-4.365-3.251-4.365-1.773 0-2.828 1.193-3.292 2.347-.17.413-.213.987-.213 1.565v10.78h-6.42s.087-17.491 0-19.303h6.42v2.736l-.043.062h.042v-.062c.853-1.313 2.376-3.19 5.784-3.19 4.224 0 7.39 2.76 7.39 8.688zM3.632.038C1.436.039 0 1.48 0 3.374 0 5.226 1.395 6.71 3.547 6.71h.043c2.238 0 3.63-1.484 3.63-3.337C7.178 1.48 5.828.04 3.632.04zM.382 28.648h6.416V9.344H.38v19.303z" fill="#000" fill-rule="nonzero"/>
</svg>
